flaticon/sewing/thread-2.svg

<svg xmlns="http://www.w3.org/2000/svg" width="32" height="32" viewBox="0 0 24 24">
    <path d="M 21.601562 18.695312 L 21.601562 5.285156 C 22.820312 4.761719 23.601562 4.0625 23.601562 3.199219 C 23.601562 1.121094 19.078125 0 14.800781 0 C 10.519531 0 6 1.121094 6 3.199219 C 6 4.0625 6.78125 4.761719 8 5.285156 L 8 15.015625 C 7.765625 14.878906 7.492188 14.800781 7.199219 14.800781 C 6.519531 14.800781 6 14.28125 6 13.601562 C 6 12.039062 4.761719 10.800781 3.199219 10.800781 C 1.640625 10.800781 0.398438 12.039062 0.398438 13.601562 C 0.398438 15.160156 1.640625 16.398438 3.199219 16.398438 C 3.441406 16.398438 3.601562 16.238281 3.601562 16 C 3.601562 15.761719 3.441406 15.601562 3.199219 15.601562 C 2.078125 15.601562 1.199219 14.71875 1.199219 13.601562 C 1.199219 12.480469 2.078125 11.601562 3.199219 11.601562 C 4.320312 11.601562 5.199219 12.480469 5.199219 13.601562 C 5.199219 14.71875 6.078125 15.601562 7.199219 15.601562 C 7.640625 15.601562 8 15.960938 8 16.398438 L 8 18.703125 C 6.367188 19.4375 6 20.226562 6 20.800781 C 6 22.878906 10.519531 24 14.800781 24 C 19.078125 24 23.601562 22.878906 23.601562 20.800781 C 23.601562 20.226562 23.269531 19.398438 21.601562 18.695312 Z M 10.582031 20.6875 L 20.800781 14.695312 L 20.800781 16.574219 L 13.195312 21.136719 C 12.160156 21.050781 11.28125 20.886719 10.582031 20.6875 Z M 14.800781 6.398438 C 15.078125 6.398438 15.359375 6.394531 15.636719 6.386719 L 8.800781 10.117188 L 8.800781 8.636719 L 12.96875 6.363281 L 12.953125 6.335938 C 13.554688 6.378906 14.175781 6.398438 14.800781 6.398438 Z M 20.800781 13.488281 L 19.011719 13.039062 L 20.800781 11.921875 Z M 20.800781 10.976562 L 17.933594 12.769531 L 16.113281 12.316406 L 20.800781 9.503906 Z M 20.800781 8.570312 L 15.015625 12.042969 L 12.945312 11.523438 L 20.800781 7.085938 Z M 20.148438 14.148438 L 18.03125 15.390625 L 8.800781 12.515625 L 8.800781 11.3125 Z M 17.097656 15.9375 L 15.640625 16.796875 L 8.800781 14.894531 L 8.800781 13.351562 Z M 12.890625 18.40625 L 8.800781 16.917969 L 8.800781 15.726562 L 14.679688 17.359375 Z M 8.800781 18.398438 L 8.800781 17.769531 L 11.996094 18.933594 L 9.609375 20.332031 C 9.082031 20.085938 8.800781 19.824219 8.800781 19.601562 Z M 20.800781 17.503906 L 20.800781 19.601562 C 20.800781 20.238281 18.480469 21.199219 14.800781 21.199219 C 14.75 21.199219 14.695312 21.199219 14.644531 21.199219 Z M 20.800781 6.164062 L 11.816406 11.242188 L 9.480469 10.660156 L 17.570312 6.242188 C 18.746094 6.109375 19.859375 5.886719 20.800781 5.582031 Z M 6.800781 3.199219 C 6.800781 2.078125 10.238281 0.800781 14.800781 0.800781 C 19.359375 0.800781 22.800781 2.078125 22.800781 3.199219 C 22.800781 4.128906 20.441406 5.164062 17.042969 5.492188 C 17.039062 5.492188 17.039062 5.492188 17.039062 5.492188 C 16.992188 5.5 16.949219 5.503906 16.902344 5.507812 C 16.875 5.507812 16.847656 5.511719 16.816406 5.515625 C 16.789062 5.515625 16.757812 5.519531 16.726562 5.523438 C 16.683594 5.523438 16.640625 5.527344 16.59375 5.53125 C 16.574219 5.535156 16.554688 5.535156 16.535156 5.535156 C 16.480469 5.539062 16.425781 5.542969 16.375 5.546875 C 16.359375 5.550781 16.34375 5.550781 16.332031 5.550781 C 16.273438 5.554688 16.210938 5.558594 16.152344 5.5625 C 16.140625 5.5625 16.132812 5.5625 16.121094 5.5625 C 16.058594 5.566406 15.996094 5.570312 15.929688 5.574219 C 15.921875 5.574219 15.914062 5.574219 15.90625 5.574219 C 15.839844 5.578125 15.777344 5.582031 15.710938 5.582031 C 15.703125 5.582031 15.695312 5.582031 15.683594 5.582031 C 15.621094 5.585938 15.558594 5.589844 15.496094 5.589844 C 15.484375 5.589844 15.476562 5.589844 15.464844 5.589844 C 15.402344 5.59375 15.34375 5.59375 15.28125 5.59375 C 15.269531 5.59375 15.253906 5.597656 15.242188 5.597656 C 15.183594 5.597656 15.125 5.597656 15.066406 5.597656 C 15.050781 5.597656 15.035156 5.597656 15.019531 5.597656 C 14.945312 5.601562 14.875 5.601562 14.800781 5.601562 C 14.726562 5.601562 14.652344 5.601562 14.578125 5.597656 C 14.566406 5.597656 14.550781 5.597656 14.535156 5.597656 C 14.476562 5.597656 14.417969 5.597656 14.359375 5.597656 C 14.34375 5.597656 14.332031 5.59375 14.320312 5.59375 C 14.257812 5.59375 14.195312 5.59375 14.136719 5.589844 C 14.125 5.589844 14.113281 5.589844 14.105469 5.589844 C 14.039062 5.589844 13.976562 5.585938 13.914062 5.582031 C 13.90625 5.582031 13.894531 5.582031 13.886719 5.582031 C 13.824219 5.582031 13.757812 5.578125 13.695312 5.574219 C 13.6875 5.574219 13.675781 5.574219 13.667969 5.574219 C 13.605469 5.570312 13.542969 5.566406 13.480469 5.5625 C 13.46875 5.5625 13.457031 5.5625 13.449219 5.5625 C 13.386719 5.558594 13.328125 5.554688 13.269531 5.550781 C 13.253906 5.550781 13.242188 5.550781 13.226562 5.546875 C 13.171875 5.542969 13.117188 5.539062 13.0625 5.535156 C 13.042969 5.535156 13.023438 5.535156 13.003906 5.53125 C 12.960938 5.527344 12.917969 5.523438 12.871094 5.523438 C 12.84375 5.519531 12.8125 5.515625 12.78125 5.515625 C 12.753906 5.511719 12.726562 5.507812 12.699219 5.507812 C 12.652344 5.503906 12.605469 5.5 12.558594 5.492188 C 9.160156 5.164062 6.800781 4.128906 6.800781 3.199219 Z M 10.15625 5.941406 C 10.613281 6.042969 11.097656 6.128906 11.605469 6.195312 L 8.800781 7.726562 L 8.800781 5.582031 C 9.222656 5.71875 9.675781 5.835938 10.15625 5.941406 Z M 14.800781 23.199219 C 10.238281 23.199219 6.800781 21.921875 6.800781 20.800781 C 6.800781 20.398438 7.238281 19.960938 8 19.601562 C 8 20.941406 10.542969 21.75 13.390625 21.949219 L 13.390625 21.953125 L 13.394531 21.949219 C 13.859375 21.984375 14.328125 22 14.800781 22 C 18.160156 22 21.601562 21.160156 21.601562 19.601562 C 22.359375 20 22.800781 20.398438 22.800781 20.800781 C 22.800781 21.921875 19.359375 23.199219 14.800781 23.199219 Z M 14.800781 23.199219"/>
    <path d="M 14.800781 4.800781 C 16.601562 4.800781 18.398438 4.238281 18.398438 3.199219 C 18.398438 2.160156 16.601562 1.601562 14.800781 1.601562 C 13 1.601562 11.199219 2.160156 11.199219 3.199219 C 11.199219 4.238281 13 4.800781 14.800781 4.800781 Z M 14.800781 2.398438 C 16.601562 2.398438 17.601562 2.960938 17.601562 3.199219 C 17.601562 3.441406 16.601562 4 14.800781 4 C 13 4 12 3.441406 12 3.199219 C 12 2.960938 13 2.398438 14.800781 2.398438 Z M 14.800781 2.398438"/>
</svg>

<svg xmlns="http://www.w3.org/2000/svg" width="32" height="32" viewBox="0 0 24 24">
    <path d="M21.602 18.695V5.285c1.218-.523 2-1.223 2-2.086C23.602 1.121 19.078 0 14.8 0 10.52 0 6 1.121 6 3.2c0 .862.781 1.562 2 2.085v9.73a1.583 1.583 0 0 0-.8-.214c-.68 0-1.2-.52-1.2-1.2 0-1.562-1.238-2.8-2.8-2.8a2.783 2.783 0 0 0-2.802 2.8A2.783 2.783 0 0 0 3.2 16.399c.242 0 .403-.16.403-.398 0-.238-.16-.398-.403-.398-1.12 0-2-.883-2-2 0-1.122.88-2 2-2 1.121 0 2 .878 2 2 0 1.117.88 2 2 2 .442 0 .801.359.801.796v2.305c-1.633.735-2 1.524-2 2.098C6 22.879 10.52 24 14.8 24c4.278 0 8.802-1.121 8.802-3.2 0-.573-.332-1.402-2-2.105zm-11.02 1.992l10.219-5.992v1.88l-7.606 4.562a13.828 13.828 0 0 1-2.613-.45zm4.219-14.289c.277 0 .558-.003.836-.011L8.8 10.117v-1.48l4.168-2.274-.016-.027c.602.043 1.223.062 1.848.062zm6 7.09l-1.79-.449 1.79-1.117zm0-2.511l-2.867 1.793-1.82-.454L20.8 9.504zm0-2.407l-5.785 3.473-2.07-.52L20.8 7.086zm-.653 5.578l-2.117 1.243-9.23-2.875v-1.204zm-3.05 1.79l-1.457.859-6.84-1.902v-1.543zm-4.207 2.468L8.8 16.918v-1.191l5.879 1.632zm-4.09-.008v-.628l3.195 1.164-2.387 1.398c-.527-.246-.808-.508-.808-.73zm12-.894v2.098c0 .636-2.32 1.597-6 1.597h-.156zm0-11.34l-8.985 5.078-2.336-.582 8.09-4.418c1.176-.133 2.29-.355 3.23-.66zM6.8 3.2c0-1.12 3.437-2.398 8-2.398 4.558 0 8 1.277 8 2.398 0 .93-2.36 1.965-5.758 2.293h-.004c-.047.008-.09.012-.137.016-.027 0-.054.004-.086.008a.763.763 0 0 0-.09.007c-.042 0-.085.004-.132.008-.02.004-.04.004-.059.004l-.16.012c-.016.004-.031.004-.043.004l-.18.011h-.03l-.192.012h-.024c-.066.004-.129.008-.195.008h-.027a3.008 3.008 0 0 1-.188.008h-.031c-.063.004-.121.004-.184.004-.011 0-.027.004-.039.004H15.02c-.075.004-.145.004-.22.004-.073 0-.148 0-.222-.004H14.36c-.015 0-.027-.004-.039-.004-.062 0-.125 0-.183-.004h-.032a3.01 3.01 0 0 1-.19-.008h-.028c-.063 0-.13-.004-.192-.008h-.027l-.188-.011h-.03a42.341 42.341 0 0 1-.18-.012c-.016 0-.028 0-.043-.004l-.165-.012c-.019 0-.039 0-.058-.004a1.43 1.43 0 0 0-.133-.008.641.641 0 0 0-.09-.007c-.027-.004-.054-.008-.082-.008-.047-.004-.094-.008-.14-.016C9.16 5.164 6.8 4.13 6.8 3.2zm3.355 2.742c.457.102.942.188 1.45.254L8.8 7.727V5.582c.422.137.875.254 1.355.36zM14.801 23.2c-4.563 0-8-1.277-8-2.398 0-.403.437-.84 1.199-1.2 0 1.34 2.543 2.149 5.39 2.348v.004l.005-.004c.464.035.933.051 1.406.051 3.36 0 6.8-.84 6.8-2.398.758.398 1.2.796 1.2 1.199 0 1.12-3.442 2.398-8 2.398zm0 0"/>
    <path d="M14.8 4.8c1.802 0 3.598-.562 3.598-1.6 0-1.04-1.796-1.598-3.597-1.598s-3.602.558-3.602 1.597c0 1.04 1.801 1.602 3.602 1.602zm0-2.402c1.802 0 2.802.563 2.802.801 0 .242-1 .801-2.801.801C13 4 12 3.441 12 3.2c0-.24 1-.802 2.8-.802zm0 0"/>
</svg>
